static/img/kroki/e28ff4df19c7abfacdcc30629bdc1915.svg

<?xml version="1.0" encoding="us-ascii" standalone="no"?><svg xmlns="http://www.w3.org/2000/svg" xmlns:xlink="http://www.w3.org/1999/xlink" contentStyleType="text/css" height="374px" preserveAspectRatio="none" style="width:454px;height:374px;" version="1.1" viewBox="0 0 454 374" width="454px" zoomAndPan="magnify"><defs/><g><!--class azure_network_vpn_site--><g id="elem_azure_network_vpn_site"><rect codeLine="23" fill="#3D176E" height="39.7891" id="azure_network_vpn_site" rx="2.5" ry="2.5" style="stroke:#000D19;stroke-width:0.5;" width="246" x="102" y="328.58"/><ellipse cx="117" cy="348.4745" fill="#ADD1B2" rx="11" ry="11" style="stroke:#181818;stroke-width:1.0;"/><path d="M119.9688,354.1152 Q119.3906,354.412 118.75,354.5527 Q118.1094,354.7089 117.4063,354.7089 Q114.9063,354.7089 113.5781,353.0683 Q112.2656,351.412 112.2656,348.287 Q112.2656,345.162 113.5781,343.5058 Q114.9063,341.8495 117.4063,341.8495 Q118.1094,341.8495 118.75,342.0058 Q119.4063,342.162 119.9688,342.4589 L119.9688,345.1777 Q119.3438,344.5995 118.75,344.3339 Q118.1563,344.0527 117.5313,344.0527 Q116.1875,344.0527 115.5,345.1308 Q114.8125,346.1933 114.8125,348.287 Q114.8125,350.3808 115.5,351.4589 Q116.1875,352.5214 117.5313,352.5214 Q118.1563,352.5214 118.75,352.2558 Q119.3438,351.9745 119.9688,351.3964 L119.9688,354.1152 Z " fill="#000000"/><text fill="#D9B8FF" font-family="Helvetica" font-size="17" lengthAdjust="spacing" textLength="204" x="136" y="354.3598">azure_network_vpn_site</text></g><!--class microsoft_resource--><g id="elem_microsoft_resource"><rect codeLine="26" fill="#3D176E" height="39.7891" id="microsoft_resource" rx="2.5" ry="2.5" style="stroke:#000D19;stroke-width:0.5;" width="200" x="7" y="167.79"/><ellipse cx="22" cy="187.6845" fill="#ADD1B2" rx="11" ry="11" style="stroke:#181818;stroke-width:1.0;"/><path d="M24.9688,193.3252 Q24.3906,193.622 23.75,193.7627 Q23.1094,193.9189 22.4063,193.9189 Q19.9063,193.9189 18.5781,192.2783 Q17.2656,190.622 17.2656,187.497 Q17.2656,184.372 18.5781,182.7158 Q19.9063,181.0595 22.4063,181.0595 Q23.1094,181.0595 23.75,181.2158 Q24.4063,181.372 24.9688,181.6689 L24.9688,184.3877 Q24.3438,183.8095 23.75,183.5439 Q23.1563,183.2627 22.5313,183.2627 Q21.1875,183.2627 20.5,184.3408 Q19.8125,185.4033 19.8125,187.497 Q19.8125,189.5908 20.5,190.6689 Q21.1875,191.7314 22.5313,191.7314 Q23.1563,191.7314 23.75,191.4658 Q24.3438,191.1845 24.9688,190.6064 L24.9688,193.3252 Z " fill="#000000"/><text fill="#D9B8FF" font-family="Helvetica" font-size="17" lengthAdjust="spacing" textLength="158" x="41" y="193.5698">microsoft_resource</text></g><!--class peering_connection--><g id="elem_peering_connection"><rect codeLine="29" fill="#3D176E" height="39.7891" id="peering_connection" rx="2.5" ry="2.5" style="stroke:#000D19;stroke-width:0.5;" width="205" x="242.5" y="167.79"/><ellipse cx="257.5" cy="187.6845" fill="#ADD1B2" rx="11" ry="11" style="stroke:#181818;stroke-width:1.0;"/><path d="M260.4688,193.3252 Q259.8906,193.622 259.25,193.7627 Q258.6094,193.9189 257.9063,193.9189 Q255.4063,193.9189 254.0781,192.2783 Q252.7656,190.622 252.7656,187.497 Q252.7656,184.372 254.0781,182.7158 Q255.4063,181.0595 257.9063,181.0595 Q258.6094,181.0595 259.25,181.2158 Q259.9063,181.372 260.4688,181.6689 L260.4688,184.3877 Q259.8438,183.8095 259.25,183.5439 Q258.6563,183.2627 258.0313,183.2627 Q256.6875,183.2627 256,184.3408 Q255.3125,185.4033 255.3125,187.497 Q255.3125,189.5908 256,190.6689 Q256.6875,191.7314 258.0313,191.7314 Q258.6563,191.7314 259.25,191.4658 Q259.8438,191.1845 260.4688,190.6064 L260.4688,193.3252 Z " fill="#000000"/><text fill="#D9B8FF" font-family="Helvetica" font-size="17" lengthAdjust="spacing" textLength="163" x="276.5" y="193.5698">peering_connection</text></g><!--class resource--><g id="elem_resource"><rect codeLine="32" fill="#3D176E" height="39.7891" id="resource" rx="2.5" ry="2.5" style="stroke:#000D19;stroke-width:0.5;" width="113" x="168.5" y="7"/><ellipse cx="183.5" cy="26.8945" fill="#ADD1B2" rx="11" ry="11" style="stroke:#181818;stroke-width:1.0;"/><path d="M186.4688,32.5352 Q185.8906,32.832 185.25,32.9727 Q184.6094,33.1289 183.9063,33.1289 Q181.4063,33.1289 180.0781,31.4883 Q178.7656,29.832 178.7656,26.707 Q178.7656,23.582 180.0781,21.9258 Q181.4063,20.2695 183.9063,20.2695 Q184.6094,20.2695 185.25,20.4258 Q185.9063,20.582 186.4688,20.8789 L186.4688,23.5977 Q185.8438,23.0195 185.25,22.7539 Q184.6563,22.4727 184.0313,22.4727 Q182.6875,22.4727 182,23.5508 Q181.3125,24.6133 181.3125,26.707 Q181.3125,28.8008 182,29.8789 Q182.6875,30.9414 184.0313,30.9414 Q184.6563,30.9414 185.25,30.6758 Q185.8438,30.3945 186.4688,29.8164 L186.4688,32.5352 Z " fill="#000000"/><text fill="#D9B8FF" font-family="Helvetica" font-size="17" lengthAdjust="spacing" textLength="71" x="202.5" y="32.7798">resource</text></g><!--reverse link microsoft_resource to azure_network_vpn_site--><g id="link_microsoft_resource_azure_network_vpn_site"><path codeLine="35" d="M131.9663,222.2876 C154.6463,252.8076 188,297.69 210.72,328.25 " fill="none" id="microsoft_resource-backto-azure_network_vpn_site" style="stroke:#FFAF37;stroke-width:2.0;"/><polygon fill="none" points="121.23,207.84,127.1504,225.8663,136.7821,218.7088,121.23,207.84" style="stroke:#FFAF37;stroke-width:2.0;"/></g><!--reverse link peering_connection to azure_network_vpn_site--><g id="link_peering_connection_azure_network_vpn_site"><path codeLine="36" d="M319.6759,222.1992 C296.6059,252.7192 262.62,297.69 239.53,328.25 " fill="none" id="peering_connection-backto-azure_network_vpn_site" style="stroke:#FFAF37;stroke-width:2.0;"/><polygon fill="none" points="330.53,207.84,314.8895,218.5812,324.4623,225.8173,330.53,207.84" style="stroke:#FFAF37;stroke-width:2.0;"/></g><!--reverse link resource to microsoft_resource--><g id="link_resource_microsoft_resource"><path codeLine="37" d="M200.0337,61.4976 C177.3537,92.0176 144,136.9 121.28,167.46 " fill="none" id="resource-backto-microsoft_resource" style="stroke:#FFAF37;stroke-width:2.0;"/><polygon fill="none" points="210.77,47.05,195.2179,57.9188,204.8496,65.0763,210.77,47.05" style="stroke:#FFAF37;stroke-width:2.0;"/></g><!--reverse link resource to peering_connection--><g id="link_resource_peering_connection"><path codeLine="38" d="M250.3241,61.4092 C273.3941,91.9292 307.38,136.9 330.47,167.46 " fill="none" id="resource-backto-peering_connection" style="stroke:#FFAF37;stroke-width:2.0;"/><polygon fill="none" points="239.47,47.05,245.5377,65.0273,255.1105,57.7912,239.47,47.05" style="stroke:#FFAF37;stroke-width:2.0;"/></g><!--SRC=[XP11Jm8n48Nl-okQS2O1YGA95oGnUY56l6zAEuLcTpkRwIm4rFyk29hIBd2TzyrxRsPbDGYeQjwA2ge5aCzyOLqjILPYGeIRAPP8ecECD8DXB3wZuvl0J5OWNg1S0ribO-9ZPLNXm7jn5qXFKXLBmiRfepsJT7ulWUE0cfRI-mapsKN349JHuyN8c9YCJJi3tHy-G88XQQ0JqklrT7yS8pUZhjxzJypj3aG_VDeC6PAQISGlTRNbWGXA9eV-wHSxlacjhLkA-s3sVkn43kXiFbz9ZPi3RMJfmnZFG82yhM6QN0NZaJR3LlZr4fofm-k4t3K4kGFU81NvkdQvjmpYCyk-JqHb5Q57mpc1nuRKcLe3qBvkhj0vK6pHXUhvHelJurUtsxrG8clnlif7hcbSJAG1sGy0]--></g></svg>

<svg xmlns="http://www.w3.org/2000/svg" width="454" height="374" viewBox="0 0 454 374"><rect width="246" height="39.789" x="102" y="328.58" fill="#3D176E" rx="2.5" ry="2.5" style="stroke:#000d19;stroke-width:.5"/><circle cx="117" cy="348.474" r="11" fill="#ADD1B2" style="stroke:#181818;stroke-width:1"/><path d="M119.969 354.115q-.578.297-1.219.438-.64.156-1.344.156-2.5 0-3.828-1.64-1.312-1.657-1.312-4.782t1.312-4.781q1.328-1.656 3.828-1.656.703 0 1.344.156.656.156 1.219.453v2.719q-.625-.579-1.219-.844-.594-.281-1.219-.281-1.344 0-2.031 1.078-.687 1.062-.687 3.156t.687 3.172q.688 1.062 2.031 1.062.625 0 1.219-.265.594-.281 1.219-.86z"/><text x="136" y="354.36" fill="#D9B8FF" font-family="Helvetica" font-size="17" textLength="204">azure_network_vpn_site</text><rect width="200" height="39.789" x="7" y="167.79" fill="#3D176E" rx="2.5" ry="2.5" style="stroke:#000d19;stroke-width:.5"/><circle cx="22" cy="187.685" r="11" fill="#ADD1B2" style="stroke:#181818;stroke-width:1"/><path d="M24.969 193.325q-.578.297-1.219.438-.64.156-1.344.156-2.5 0-3.828-1.64-1.312-1.657-1.312-4.782t1.312-4.781q1.328-1.656 3.828-1.656.703 0 1.344.156.656.156 1.219.453v2.719q-.625-.578-1.219-.844-.594-.281-1.219-.281-1.343 0-2.031 1.078-.687 1.062-.687 3.156t.687 3.172q.688 1.062 2.031 1.062.625 0 1.219-.265.594-.281 1.219-.86z"/><text x="41" y="193.57" fill="#D9B8FF" font-family="Helvetica" font-size="17" textLength="158">microsoft_resource</text><rect width="205" height="39.789" x="242.5" y="167.79" fill="#3D176E" rx="2.5" ry="2.5" style="stroke:#000d19;stroke-width:.5"/><circle cx="257.5" cy="187.685" r="11" fill="#ADD1B2" style="stroke:#181818;stroke-width:1"/><path d="M260.469 193.325q-.578.297-1.219.438-.64.156-1.344.156-2.5 0-3.828-1.64-1.312-1.657-1.312-4.782t1.312-4.781q1.328-1.656 3.828-1.656.703 0 1.344.156.656.156 1.219.453v2.719q-.625-.578-1.219-.844-.594-.281-1.219-.281-1.344 0-2.031 1.078-.687 1.062-.687 3.156t.687 3.172q.688 1.062 2.031 1.062.625 0 1.219-.265.594-.281 1.219-.86z"/><text x="276.5" y="193.57" fill="#D9B8FF" font-family="Helvetica" font-size="17" textLength="163">peering_connection</text><rect width="113" height="39.789" x="168.5" y="7" fill="#3D176E" rx="2.5" ry="2.5" style="stroke:#000d19;stroke-width:.5"/><circle cx="183.5" cy="26.895" r="11" fill="#ADD1B2" style="stroke:#181818;stroke-width:1"/><path d="M186.469 32.535q-.578.297-1.219.438-.64.156-1.344.156-2.5 0-3.828-1.64-1.312-1.657-1.312-4.782t1.312-4.781q1.328-1.656 3.828-1.656.703 0 1.344.156.656.156 1.219.453v2.719q-.625-.578-1.219-.844-.594-.281-1.219-.281-1.344 0-2.031 1.078-.687 1.062-.687 3.156t.687 3.172q.688 1.062 2.031 1.062.625 0 1.219-.265.594-.281 1.219-.86z"/><text x="202.5" y="32.78" fill="#D9B8FF" font-family="Helvetica" font-size="17" textLength="71">resource</text><path fill="none" d="M131.966 222.288c22.68 30.52 56.034 75.402 78.754 105.962m-89.49-120.41 5.92 18.026 9.632-7.157zm198.446 14.36c-23.07 30.52-57.056 75.49-80.146 106.05m91-120.41-15.64 10.741 9.572 7.236zM200.034 61.498C177.354 92.018 144 136.9 121.28 167.46m89.49-120.41-15.552 10.869 9.632 7.157zm39.554 14.36c23.07 30.52 57.056 75.49 80.146 106.05m-91-120.41 6.068 17.977 9.572-7.236z" style="stroke:#ffaf37;stroke-width:2"/></svg>
